!!!!SEGMENT: pl-wumfc--n44034_maszynski-piotr--bociany-op-40-no-9.krn
!!!cenid: 18xx:4174
!!!COM: Maszyński, Piotr
!!!COM-rismID: pe41023858
!!!CDT:
!!!CNT:
!!!OTL: Bociany op. 40 No. 9
!!!PDT: 1899
!!!AGN:
!!!SMS-siglum: PL-Wumfc
!!!SMS-shelfmark: N44034
!!!SMS-shelfwork: W
!!!SMS-variant:
!!!SMS-altvar:
!!!NIFC-rismSourceID: 1001177592
!!!NIFC-rismChildID: 1001177592
!!!NIFC-islandoraID: pl-wumfc:9436
!!!URL-pdf-islandora: https://repozytorium.nifc.pl/islandora/object/pl-wumfc%3A9436/datastream/PDF/view
!!!URL-scan: https://polish.musicsources.pl/pl/lokalizacje/galeria/druki-muzyczne/12482/1 @EN{Scan on Polish Music Sources Website} @PL{Skany w portalu Dziedzictwo Muzyki Polskiej w otwartym dostępie}
!!!IIIF:
!!!ONB-nifc:
!!!AIN: 1 piano 1 soprn
!!!key: F
**kern	**kern	**dynam	**kern	**text	**text	**dynam
*part2	*part2	*part2	*part1	*part1	*part1	*part1
*staff3	*staff2	*	*staff1	*staff1	*staff1	*
*I"Fortepian	*I"Fortepian	*	*I"Śpiew	*	*	*
*>[A,B,B1,B,B2,C]	*>[A,B,B1,B,B2,C]	*	*	*	*	*
*>A	*>A	*	*>A	*	*	*
*Ipiano	*Ipiano	*	*Isoprn	*	*	*
*ICklav	*ICklav	*	*ICvox	*	*	*
*IGacmp	*IGacmp	*	*IGsolo	*	*	*
*clefF4	*clefG2	*	*clefG2	*	*	*
*k[b-]	*k[b-]	*	*k[b-]	*	*	*
*F:	*F:	*	*F:	*	*	*
*M9/8	*M9/8	*	*M9/8	*	*	*
=1	=1	=1	=1	=1	=1	=1
!!LO:TX:a:B:t=Andante.
!LO:TX:b=2:i:t=una corda	!	!	!	!	!	!
(<8dd>L 8b->'\	(8dddL 8ff'/	mf	8%9r	.	.	.
8dd> 8b->'\	8ddd 8ff'/	.	.	.	.	.
8dd>J 8b->'\	8dddJ 8ff'/	.	.	.	.	.
!	!	!LO:HP:b:t=diminuendo	!	!	!	!
8dd>L 8b->'\	8dddL 8ff'/	>	.	.	.	.
8dd> 8g>'\	8bb- 8ff'/	.	.	.	.	.
8cc>J 8a>'\	8aaJ 8ee'/	.	.	.	.	.
8b->'\L	8ggL 8dd'/	.	.	.	.	.
8a> 8d>'\	8ff 8cc'/	.	.	.	.	.
8g>J 8e>'\	8eeJ 8b-'/	.	.	.	.	.
=2	=2	=2	=2	=2	=2	=2
8f>'\L	8ddL 8a'/	.	8%9r	.	.	.
8e> 8A>'\	8cc 8g'/	.	.	.	.	.
8d>J 8B->'\	8b-J 8f'/	.	.	.	.	.
!LO:TX:t=P:problem:mixed beam	!	!	!	!	!	!
8c>'\L	8aL 8e'/	.	.	.	.	.
8B- 8C'/	8g 8d'/	.	.	.	.	.
8AJ 8C'/	8fJ 8c'/	.	.	.	.	.
8GL 8C'\	8eL 8B-'/	.	.	.	.	.
8F 8C'\	8d 8B-'/	.	.	.	.	.
8EJ 8C'\)	8cJ 8B-'/)	.	.	.	.	.
=3!|:	=3!|:	=3!|:	=3!|:	=3!|:	=3!|:	=3!|:
*>B	*>B	*	*>B	*	*	*
*ped	*	*	*	*	*	*
!LO:TX:t=P:problem:mixed beam	!	!	!	!	!	!LO:DY:a
(16FF/LL	4.ryy	p	8a/	Od	A	p
16C/	.	.	.	.	.	.
!	!	!	!LO:TX:a:i:t=dolce	!	!	!
16F/	.	.	[4cc\	mo-	mo-	.
16A/	.	.	.	.	.	.
16c>\	.	.	.	.	.	.
16f>\JJ	.	.	.	.	.	.
8a>\)	8a/	.	8cc\]	.	.	.
8a>L 8f>'\	8cccL 8ff'/	.	8b-\	-rza	-je	.
8a>J 8f>'\	8cccJ 8ff'/	.	8a/	si-	bo-	.
4a> 4f>~\	4ccc 4ff~/	.	8g/L	-ne-	-cia-	.
.	.	.	8f/J	.	.	.
8r	8r	.	8a/	-go	-ny	.
*Xped	*	*	*	*	*	*
!!LO:LB:g=original
=4	=4	=4	=4	=4	=4	=4
*ped	*	*	*	*	*	*
!LO:TX:t=P:problem:mixed beam	!	!	!	!	!	!
(16FF/LL	4.ryy	.	8cc\	Bo-	Wy	.
16C/	.	.	.	.	.	.
16F/	.	.	[4cc\	-cia-	bia-	.
16A/	.	.	.	.	.	.
16c>\	.	.	.	.	.	.
16f>\JJ	.	.	.	.	.	.
8a>\)	8a/	.	8cc\]	.	.	.
8a>L 8f>'\	8cccL 8ff'/	.	8b-\	-ny	-łe	.
8a>J 8f>'\	8cccJ 8ff'/	.	8a/	le-	piel-	.
4a> 4f>~\	4ccc 4ff~/	.	8g/L	-cia-	-grzy-	.
.	.	.	8f/J	.	.	.
8r	8r	.	8a/	-ły,	-my	.
*Xped	*	*	*	*	*	*
=5	=5	=5	=5	=5	=5	=5
*ped	*	*	*	*	*	*
!LO:TX:t=P:problem:mixed beam	!	!	!	!	!	!
(16FF/LL	4.ryy	.	8c/	Do	Leć-	.
16C/	.	.	.	.	.	.
16F/	.	.	[4c/	na-	-cież	.
16A/	.	.	.	.	.	.
16c>\	.	.	.	.	.	.
16f>\JJ	.	.	.	.	.	.
8a>\)	8a/	<	8c/]	.	.	.
!	!	!	!	!	!	!LO:DY:a
8cc>L 8a>\	8cccL 8ee/	.	8e/	-szej	gdzie	<
8cc>J 8a>\	8cccJ 8ee/	.	8a/	cha-	się	.
*Xped	*	*	*	*	*	*
8cc>L 8b->\	8cccL 8gg/	.	8g/L	-tecz-	ście-	.
8cc>J 8a>\	8cccJ 8ff/	.	8f/J	.	.	.
8r	8r	[	8a/	-ki	-lą	[[
=6	=6	=6	=6	=6	=6	=6
*ped	*	*	*	*	*	*
!LO:TX:t=P:problem:mixed beam	!	!	!	!	!	!
(16FF/LL	4.ryy	.	8dd\	dro-	Ja-	.
16F/	.	.	.	.	.	.
16A/	.	.	[4dd\	-gi	-łow-	.
16Bn/	.	.	.	.	.	.
16d>\	.	.	.	.	.	.
16f>\JJ	.	.	.	.	.	.
8a>\)	8a/	>	8dd\]	.	.	.
!	!	!	!	!	!	!LO:DY:a
8bn>L 8a>\	8dddL 8ff/	.	8cc\	nie	-co-	>
8b>J 8a>\	8dddJ 8ff/	.	8bn\	wie-	-we	.
*Xped	*	*	*	*	*	*
4cc> 4a>\	4ccc 4ee/	]	8cc\L	-dzia-	dy-	.
.	.	.	8dd\J	.	.	.
8r	8r	.	8a/	-ły…	-my,	]]
!!LO:LB:g=original
=7	=7	=7	=7	=7	=7	=7
*ped	*	*	*	*	*	*
!LO:TX:t=P:problem:mixed beam	!	!	!	!	!	!LO:DY:a
(16BB-/LL	4.ryy	mf	8dd^\	A	Leć-	mf
16F/	.	.	.	.	.	.
16B-/	.	.	[4ff\	nad	-cież	.
16d/	.	.	.	.	.	.
16f>\	.	.	.	.	.	.
16b->\JJ	.	.	.	.	.	.
8dd>\)	8dd/	.	8ff\]	.	.	.
8dd>L 8b->\	8fffL 8bb-/	.	8ee\	si-	gdzie	.
8dd>J 8b->\	8fffJ 8bb-/	.	8dd\	-nem	się	.
*Xped	*	*	*	*	*	*
4dd> 4b->\	4fff 4bb-/	.	8cc\L	mo-	zło-	.
.	.	.	8b-\J	.	.	.
8r	8r	.	8dd\	-rzem	-ci	.
=8	=8	=8	=8	=8	=8	=8
*ped	*	*	*	*	*	*
!LO:TX:t=P:problem:mixed beam	!	!	!	!	!	!
(16AA/LL	4.ryy	.	8ff\	Ja-	Ta	.
16A/	.	.	.	.	.	.
16c/	.	.	[4ff\	-sna	sło-	.
16f/	.	.	.	.	.	.
16a>\	.	.	.	.	.	.
16cc>\JJ	.	.	.	.	.	.
8ff>\)	8ff/	.	8ff\]	.	.	.
8cc>L 8a>\	8fffL 8ccc 8ff/	.	8ee\	zo-	-mia-	.
8cc>J 8a>\	8fffJ 8ccc 8ff/	.	8dd\	-rza	-na	.
*Xped	*	*	*	*	*	*
4cc> 4a>\	4fff 4ccc 4ff/	.	8cc\L	sta-	strze-	.
.	.	.	8b-\J	.	.	.
8r	8r	.	8a/	-ła,	-cha,	.
=9	=9	=9	=9	=9	=9	=9
*ped	*	*	*	*	*	*
!LO:TX:t=P:problem:mixed beam	!	!LO:DY:b=2:t=più piano	!	!	!	!LO:DY:a:t=più piano
(16GG/LL	4.ryy	p	8dd\	Tym	Gdzie	p
16G/	.	.	.	.	.	.
16B-/	.	.	[4dd\	bia-	sły-	.
16d/	.	.	.	.	.	.
16g>\	.	.	.	.	.	.
16b->\JJ	.	.	.	.	.	.
8dd>\)	8dd/	.	8dd\]	.	.	.
8b->L 8g>\	8dddL 8gg/	.	8cc\	-łym	-chać	.
8b->J 8g>\	8dddJ 8gg/	.	8b-\	bo-	po	.
*Xped	*	*	*	*	*	*
4b-> 4g>\	4ddd 4gg/	.	8a/L	-cia-	bło-	.
.	.	.	8g/J	.	.	.
8r	8r	.	8b-\	-nom	-ni	.
!!LO:PB:g=original
=10	=10	=10	=10	=10	=10	=10
*ped	*	*	*	*	*	*
!LO:TX:t=P:problem:mixed beam	!	!	!	!	!	!
(16FF/LL	4.ryy	.	8dd\	Dro-	Tę-	.
16F/	.	.	.	.	.	.
16A/	.	.	[4dd\	-gę	-sknej	.
16d/	.	.	.	.	.	.
16f>\	.	.	.	.	.	.
16a>\JJ	.	.	.	.	.	.
8dd>\)	8dd/	.	8dd\]	.	.	.
8a>L 8f>\	8dddL 8dd/	.	8f/	po-	pie-	.
8a>J 8f>\	8dddJ 8dd/	.	8g/	-ka-	-śni	.
*Xped	*	*	*	*	*	*
4a> 4f>\	4ddd 4dd/	.	8a/	-za-	e-	.
.	.	.	8f/	-ła.	-cha.	.
8r	8r	.	8a/	A	A	.
=11||	=11||	=11||	=11||	=11||	=11||	=11||
*M6/8	*M6/8	*	*M6/8	*	*	*
*ped	*	*	*	*	*	*
*	*^	*	*	*	*	*
!LO:TX:t=P:problem:mixed beam	!	!	!LO:HP:b=2	!	!	!	!LO:DY:a
(<16E-X/LL	(4gg/	4g\	<	(4g/	mo-	mo-	<
16B-/	.	.	.	.	.	.	.
16e-X/	.	.	.	.	.	.	.
16g/	.	.	.	.	.	.	.
*Xped	*	*	*	*	*	*	*
16b->\	8bb-/)	8ryy	[	8b-\)	.	.	[
16ee-X>\JJ)	.	.	.	.	.	.	.
*ped	*	*	*	*	*	*	*
!LO:TX:t=P:problem:mixed beam	!	!	!LO:HP:b=2	!	!	!	!LO:DY:a
(<16BB-/LL	(4ddd/	4dd\	>	4dd\	-je	-je	>
16F/	.	.	.	.	.	.	.
16B-/	.	.	.	.	.	.	.
16d/	.	.	.	.	.	.	.
16f>\	8ff/)	8ryy	]	8f/	bo-	bo-	]
16b->\JJ)	.	.	.	.	.	.	.
*Xped	*	*	*	*	*	*	*
=12	=12	=12	=12	=12	=12	=12	=12
*ped	*	*	*	*	*	*	*
!LO:TX:t=P:problem:mixed beam	!	!	!LO:HP:b=2	!	!	!	!LO:DY:a
(<16E-X/LL	(4gg/	4g\	<	(4g/	-cia-	-cia-	<
16B-/	.	.	.	.	.	.	.
16e-X/	.	.	.	.	.	.	.
16g/	.	.	.	.	.	.	.
16b->\	8bb-/)	8ryy	[	8b-\)	.	.	[
*Xped	*	*	*	*	*	*	*
16ee-X>\JJ)	.	.	.	.	.	.	.
*ped	*	*	*	*	*	*	*
!LO:TX:t=P:problem:mixed beam	!	!	!	!	!	!	!
(<16BB-/LL	4.ddd 4.dd\	4ryy	.	4dd\	-ny	-ny	.
16F/	.	.	.	.	.	.	.
16B-/	.	.	.	.	.	.	.
16d/	.	.	.	.	.	.	.
16f>\	.	8ryy	.	8r	.	.	.
*Xped	*	*	*	*	*	*	*
16b->\JJ)	.	.	.	.	.	.	.
*	*v	*v	*	*	*	*	*
!!LO:LB:g=original
=13	=13	=13	=13	=13	=13	=13
*ped	*	*	*	*	*	*
!LO:TX:t=P:problem:mixed beam	!	!	!	!	!	!
(<16E-X/LL	8dd/L	.	8r	.	.	.
16G/	.	.	.	.	.	.
16B-/	16cc/L	.	8cc\	Wę-	Bo-	.
16c/	16g/	.	.	.	.	.
16b->\	16b-/	.	8b-\	-dro-	-że	.
*Xped	*	*	*	*	*	*
16e-X>\JJ	16e-X/JJ	.	.	.	.	.
*ped	*	*	*	*	*	*
!LO:TX:t=P:problem:mixed beam	!	!	!	!	!	!
16E-/LL	8a/L	.	(8a/L	-wni-	wy	.
16A/	.	.	.	.	.	.
16e-X/	16g/L	.	8g/J)	.	.	.
16c>\	16c/	.	.	.	.	.
16cc>\	16cc/	.	8a/	-ki	pąt-	.
*Xped	*	*	*	*	*	*
16c>\JJ)	16c/JJ	.	.	.	.	.
=14||	=14||	=14||	=14||	=14||	=14||	=14||
*M9/8	*M9/8	*	*M9/8	*	*	*
*ped	*	*	*	*	*	*
*	*^	*	*	*	*	*
!LO:TX:t=P:problem:mixed beam	!	!	!	!	!	!	!LO:DY:a
4.ryy	(<16D</LL	8.ccL 8.f#X/	.	4.f#X/	bo-	-ni-	>
.	16A</	.	.	.	.	.	.
.	16c</	.	.	.	.	.	.
.	16d\	16d/L	<	.	.	.	.
.	16en\	16en/	.	.	.	.	.
.	16f#y\JJ	16f#/JJ	.	.	.	.	.
4r	16a\LL	2.ryy	.	4d/	-że!	-ki!	]
.	16cc\	.	.	.	.	.	.
.	16dd\	.	[	.	.	.	.
.	16ff#X\	.	.	.	.	.	.
8r	16aa\	.	>	8r	.	.	.
.	16ff#\JJ	.	.	.	.	.	.
4r	16dd/LL	.	.	4r	.	.	.
.	16cc/	.	.	.	.	.	.
.	16a/	.	.	.	.	.	.
*Xped	*	*	*	*	*	*	*
.	16f/	.	.	.	.	.	.
8r	16e/	.	.	8r	.	.	.
.	16d/JJ)	.	]	.	.	.	.
!!LO:LB:g=original
=15	=15	=15	=15	=15	=15	=15	=15
*^	*	*	*	*	*	*	*
*ped	*	*	*	*	*	*	*	*
!LO:TX:t=P:problem:mixed beam	!	!	!	!	!	!	!	!LO:DY:a
!LO:TX:t=P:problem:błędne wyświetlanie łuku	!	!	!	!	!	!	!	!
(16GG/LL	8ryy	[4.dd/	4.ryy	p	8dd^\	Leć-	Leć-	mf
16D/	.	.	.	.	.	.	.	.
!	!LO:TX:t=P:problem:łuk jest wpisany od góry	!	!	!	!	!	!	!
16G/	(<[>4G\	.	.	.	[4dd\	-cież	-cież	.
16Bn>\	.	.	.	.	.	.	.	.
16d>\	.	.	.	.	.	.	.	.
16g>\JJ)	.	.	.	.	.	.	.	.
*Xped	*	*	*	*	*	*	*	*
4.G\]	4ryy	8dd/L]	8bn\L	.	8dd\]	.	.	.
.	.	(8cc#X/	8a#X\	.	8cc#X\	gdzie	tam,	.
.	2ryy	8g/J	8e\J	.	8g/	się	gdzie	.
8F#X\L	.	8an/L	8e-X\L	.	8a/L	błysz-	gra-	.
8Fn\	.	8bnX/	8d\	.	8bn/J	.	.	.
8E\J)	.	8g/J)	8c#X\J	.	8g/	-czą	-ją	.
*v	*v	*	*	*	*	*	*	*
=16	=16	=16	=16	=16	=16	=16	=16
*ped	*	*	*	*	*	*	*
!	!LO:TX:t=P:problem:mixed beam	!	!	!	!	!	!
4.ryy	(16EE-X</LL	4.b-X 4.d-X/	.	8b-^\	Płu-	E-	.
.	16E-X</	.	.	.	.	.	.
.	16G</	.	.	[4b-\	-gi	-cho-	.
!	!	!	!LO:DY:a	!	!	!	!
.	16B-X\	.	<	.	.	.	.
.	16d-\	.	.	.	.	.	.
.	16g\JJ)	.	.	.	.	.	.
*Xped	*	*	*	*	*	*	*
!	!	!LO:TX:b:i:t=animando	!	!	!	!	!
4r	2.ryy	8b-L 8g/	.	8b-\]	.	.	.
.	.	(8a 8f/	.	8a-X/	na	-we	.
!	!	!	!	!LO:TX:a:i:t=animando	!	!	!
8r	.	8gJ 8e-X/	.	8g/	u-	mu-	.
8AA-X/L	.	8aL 8c/	.	8a-/L	-go-	-zy-	.
8E-/	.	8b- 8e-/	.	8b-/J	.	.	.
8AA-/J	.	8ccJ 8a/)	[[	8cc\	-rze,	-ki,	.
*	*v	*v	*	*	*	*	*
!!LO:LB:g=original
=17	=17	=17	=17	=17	=17	=17
*	*^	*	*	*	*	*
*ped	*	*	*	*	*	*	*
!	!LO:TX:t=P:problem:mixed beam	!	!LO:HP:t=cre-scen-do:ext2=cd	!	!	!	!LO:HP:t=cre-scen-do:ext2=cd
(16AAn/LL	[4.ee-X 4.cc/	4ryy	<	8ee-X\	Gdzie	Leć-	<
16E-X/	.	.	.	.	.	.	.
16F#X/	.	.	.	[4ee-\	te	-cież	.
16c/	.	.	.	.	.	.	.
16e-X>\	.	16ryy	.	.	.	.	.
16f#X>\JJ)	.	16ryy	.	.	.	.	.
*Xped	*	*	*	*	*	*	*
4r	8ee-/L]	8cc\L	.	8ee-\]	.	.	.
.	(8dd/	8b-\	.	8dd\	la-	gdzie	.
8r	8an/J	8f#X\J	.	8an/	-sów	naj-	.
4.D\	8b-/L	8g\	.	8b-\L	smu-	-mi-	.
.	8cc/	4f#\	.	8cc\J	.	.	.
.	8a/J)	.	.	8a/	-gi	-lej,	.
=18	=18	=18	=18	=18	=18	=18	=18
*ped	*	*	*	*	*	*	*
!	!LO:TX:t=P:problem:mixed beam	!	!	!	!	!	!
4.ryy	(<16BB-</LL	4.cc/ 4.a/	.	8cc\	Czer-	Gdzie	.
.	16D</	.	.	.	.	.	.
.	16G</	.	.	[4cc\	-nią	naj-	.
.	16B-</	.	.	.	.	.	.
.	16d\	.	.	.	.	.	.
.	[<16g\JJ)	.	.	.	.	.	.
*Xped	*	*	*	*	*	*	*
4r	8g\L]	8cc/L	.	8cc\]	.	.	.
.	8g\	(>8b-/	.	8b-\	się	-ja-	.
8r	8f#X\J	8a/J	.	8a/	pod	-śniej	.
4r	8g\L	8b-/L	.	8b-\L	nie-	w świe-	.
.	8a\	8cc/	.	8cc\J	.	.	.
8r	8b-\J	8dd/J)	.	8dd\	-bem,	-cie,	.
!!LO:LB:g=original
=19	=19	=19	=19	=19	=19	=19	=19
*ped	*	*	*	*	*	*	*
!LO:TX:t=P:problem:mixed beam	!	!	!	!	!	!	!
(<16BBn/LL	4.ryy	[4.ff/ 4.dd/	.	8ff\	Gdzie	Tam	.
16F/	.	.	.	.	.	.	.
16G#X/	.	.	.	[4ff\	len	pe-	.
16d/	.	.	.	.	.	.	.
16f>\	.	.	.	.	.	.	.
16g#X>\JJ)	.	.	.	.	.	.	.
*Xped	*	*	*	*	*	*	*
4r	8dd\L	8ff/L]	.	8ff\]	.	.	.
.	8cc\	(>8ee/	.	8ee\	mo-	-wno	.
8r	8bn\J	8dd/J	[	8dd\	-dry	tę	[
4r	8a#X\L	8cc#X/L	.	8cc#X\	kwit-	dro-	.
.	8b\	8dd/	.	8dd\	-nie,	-gą	.
8r	8g#\J	8ee/J)	.	8ee\	A	Cha-	.
=20	=20	=20	=20	=20	=20	=20	=20
*	*	*	*	*^	*	*	*
.	.	(16qqan/L	sf	.	.	.	.	.
!	!	!LO:TX:t=P:problem:mixed beam	!	!	!	!	!	!
.	.	16qqcc/J	.	.	.	.	.	.
*ped	*	*	*	*	*	*	*	*
!	!	!	!	!	!	!	!	!LO:DY:a
4.ryy	(<16C</LL	(>4.gg\)	.	4.gg/	2ryy	zie-	-tecz-	sf
.	16A</	.	.	.	.	.	.	.
.	16c</	.	.	.	.	.	.	.
.	16f</	.	.	.	.	.	.	.
.	16a\	.	.	.	.	.	.	.
.	16cc\JJ	.	.	.	.	.	.	.
!	!	!LO:TX:b:i:t=rall.	!	!LO:TX:a:i:t=rall.	!	!	!	!
4r	8ff\L	8ff/)	>	8ff/	.	-mia	-kę	.
.	8aa\	4ryy	.	8cc/	8cc\L	pa-	znaj-	.
8r	8ccc\J	.	.	8a/	8a\J	-chnie	.	[[
!	!	!	!	!	!	!	!	!LO:DY:a
4r	8fff\)	8ryy	]	8g/	4ryy	chle-	-dzie-	>
.	8r	8r	.	8f/	.	-bem,	-cie,	.
8r	8r	8r	.	8a/	8ryy	gdzie	tę	]
*	*v	*v	*	*	*	*	*	*
*Xped	*	*	*	*	*	*	*
!!LO:LB:g=original
=21	=21	=21	=21	=21	=21	=21	=21
*	*^	*	*	*	*	*	*
*ped	*	*	*	*	*	*	*	*
!LO:TX:t=P:problem:linia arpeggio przeciągnięta między systemami	!LO:TX:t=P:problem:linia arpeggio przeciągnięta między systemami	!	!	!	!	!	!	!LO:DY:a
2.B-: 2.G: 2.C:\	2.dd: 2.b-: 2.f: 2.d:/	2.ryy	mf	8d/L	8d\	zie-	-dro-	<
.	.	.	.	8g/J	8g\	.	-gą	.
.	.	.	.	8e/	8e\	-mia	cha-	[
.	.	.	.	[4.dd/	4rcyy	pa-	-tecz-	.
.	.	.	.	.	2ryy	.	.	.
*Xped	*	*	*	*	*	*	*	*
!	!LO:TX:a:i:t=m. s.	!	!	!	!	!	!	!
(8qCC/	.	.	.	.	.	.	.	.
*ped	*	*	*	*	*	*	*	*
!LO:TX:t=P:problem:linia arpeggio przeciągnięta między systemami	!LO:TX:t=P:problem:linia arpeggio przeciągnięta między systemami	!	!	!	!	!	!	!LO:DY:a
4c: 4B-: 4G: 4C:\)	4ccc:/	4ee: 4b-: 4g: 4e:\	.	(8dd\]	.	.	.	>
.	.	.	.	8cc\)	.	.	kę	.
8r	8raa	8ryy	.	8a/	.	-chnie	znaj-	]
*Xped	*	*	*	*	*	*	*	*
*	*v	*v	*	*	*	*	*	*
*	*	*	*v	*v	*	*	*
=22	=22	=22	=22	=22	=22	=22
*>B1	*>B1	*	*>B1	*	*	*
*ped	*	*	*	*	*	*
!	!LO:TX:t=P:problem:mixed beam	!	!	!	!	!
4.ryy	(<16FF</LL	.	4.f/	chle-	.	.
.	16C</	.	.	.	.	.
.	16F</	.	.	.	.	.
.	16A</	.	.	.	.	.
.	16c\	.	.	.	.	.
.	16f\JJ	.	.	.	.	.
8ryy	8a/)	.	4f/	-bem.	.	.
(8cc>L 8a>\	(8ffL 8dd/	<	.	.	.	.
8cc>J 8b-> 8g>\	8ggJ 8ee/	.	8r	.	.	.
*Xped	*	*	*	*	*	*
8cc>L 8a> 8f>\)	8aa 8ff/)	.	4r	.	.	.
(8ff> 8dd>\	(8bb-L 8gg/	.	.	.	.	.
8ff>J 8een> 8cc>\	8cccJ 8aa/	.	8r	.	.	.
=23	=23	=23	=23	=23	=23	=23
*ped	*	*	*	*	*	*
16ff>LL 16dd> 16b->\)	4ddd 4bb-/)	.	8%9r	.	.	.
(16B->\	.	.	.	.	.	.
16f>\	.	.	.	.	.	.
16b->\JJ	.	.	.	.	.	.
16dd>/LL	8r	.	.	.	.	.
16ff>/JJ	.	.	.	.	.	.
!	!	!LO:HP:b:t=diminuendo	!	!	!	!
8bb->/)	8r	>	.	.	.	.
(<8dd>L 8g>'\	(8bb-L 8ff'/	.	.	.	.	.
*Xped	*	*	*	*	*	*
8cc>J 8a>'\	8aaJ 8ee'/	.	.	.	.	.
8b->'\L	8ggL 8dd'/	.	.	.	.	.
8a> 8d>'\	8ff 8cc'/	.	.	.	.	.
8g>J 8e>'\	8eeJ 8b-'/	.	.	.	.	.
!!LO:LB:g=original
=24	=24	=24	=24	=24	=24	=24
8f>'\L	8ddL 8a'/	.	8%9r	.	.	.
8e> 8A>'\	8cc 8g'/	.	.	.	.	.
8d>J 8B->'\	8b-J 8f'/	.	.	.	.	.
!LO:TX:t=P:problem:mixed beam	!	!	!	!	!	!
8c>'\L	8aL 8e'/	.	.	.	.	.
8B-/ 8C'/	8g 8d'/	.	.	.	.	.
8A/J 8C'/	8fJ 8c'/	.	.	.	.	.
8GL 8C'\	8eL 8B-'/	.	.	.	.	.
8F 8C'\	8d 8B-'/	.	.	.	.	.
8EJ 8C'\)	8cJ 8B-'/)	.	.	.	.	.
=25:|!	=25:|!	=25:|!	=25:|!	=25:|!	=25:|!	=25:|!
*>B2	*>B2	*	*>B2	*	*	*
*ped	*	*	*	*	*	*
!LO:TX:t=P:problem:mixed beam	!	!	!	!	!	!
(<16FF/LL	2ryy	.	4.f/	.	-dzie-	.
16C/	.	.	.	.	.	.
16F/	.	.	.	.	.	.
16A/	.	.	.	.	.	.
16c>\	.	.	.	.	.	.
16f>\JJ	.	.	.	.	.	.
8a>/)	.	.	4f/	.	-cie.	.
(8cc>L 8a>\	(8ggL 8dd/	<	.	.	.	.
8cc>J 8b-> 8g>\	8ggJ 8ee/	.	8r	.	.	.
*Xped	*	*	*	*	*	*
8cc> 8a> 8f>\)	8aa 8ff/)	.	4r	.	.	.
(8ff>L 8dd>\	(8bb-L 8gg/	.	.	.	.	.
8ff>J 8een> 8cc>\	8cccJ 8aa/	.	8r	.	.	.
=26	=26	=26	=26	=26	=26	=26
*>C	*>C	*	*>C	*	*	*
*ped	*	*	*	*	*	*
16ff>LL 16dd> 16b->\)	4ddd 4bb-/)	.	8%9r	.	.	.
(16B->\	.	.	.	.	.	.
16f>\	.	.	.	.	.	.
16b->\JJ	.	.	.	.	.	.
16dd>/LL	8r	.	.	.	.	.
16ff>/JJ	.	.	.	.	.	.
8bb->/)	8r	.	.	.	.	.
(8ff>L 8dd>\	(8bb-L 8gg/	.	.	.	.	.
*Xped	*	*	*	*	*	*
8ff>J 8ee> 8cc>\	8cccJ 8aa/	.	.	.	.	.
8ff> 8dd> 8b->\)	8ddd 8bb-/)	.	.	.	.	.
*	*8va	*	*	*	*	*
(8cc>L 8a>\	(8fffL 8ddd/	.	.	.	.	.
8cc>J 8b-> 8g>\	8gggJ 8eee/	.	.	.	.	.
!!LO:LB:g=original
=27	=27	=27	=27	=27	=27	=27
*ped	*	*	*	*	*	*
!	!	!LO:HP:t=di-mi-nu-en-do:ext2=cd	!	!	!	!
16a>:LL 16f>:\)	4aaa: 4fff: 4ccc:/)	>	8%9r	.	.	.
N(>16A>\	.	.	.	.	.	.
16c>\	.	.	.	.	.	.
16f>\JJ	.	.	.	.	.	.
8.ryy	16aa/LL	.	.	.	.	.
.	16ccc/JJ	.	.	.	.	.
.	16fff/N)	.	.	.	.	.
*	*X8va	*	*	*	*	*
!	!LO:TX:a:i:t=loco.	!	!	!	!	!
N(16f>\LL	8.ryy	.	.	.	.	.
16a>\	.	.	.	.	.	.
16cc>\JJ	.	.	.	.	.	.
8.ryy	16ff/LL	.	.	.	.	.
.	16aa/JJ	.	.	.	.	.
.	16ccc/N)	.	.	.	.	.
N(16c>\LL	8.ryy	.	.	.	.	.
16f>\	.	.	.	.	.	.
16a>\JJ	.	.	.	.	.	.
8ryy	16cc/LL	.	.	.	.	.
.	16ff/JJ	.	.	.	.	.
=28	=28	=28	=28	=28	=28	=28
16r	16aa/N)	.	8%9r	.	.	.
N(>16A/LL	8.ryy	.	.	.	.	.
16c/	.	.	.	.	.	.
16f/JJ	.	.	.	.	.	.
8.ryy	16a\LL	.	.	.	.	.
.	16cc\JJ	.	.	.	.	.
.	16ff\N)	.	.	.	.	.
N(>16F/LL	8.ryy	.	.	.	.	.
16A/	.	.	.	.	.	.
16c/JJ	.	.	.	.	.	.
8.ryy	16f/LL	.	.	.	.	.
.	16a/JJ	.	.	.	.	.
.	16cc\N)	.	.	.	.	.
N(>16C/LL	8.ryy	.	.	.	.	.
16F/	.	.	.	.	.	.
16A/JJ	.	.	.	.	.	.
8ryy	16c/LL	.	.	.	.	.
.	16f/JJ	]	.	.	.	.
=29	=29	=29	=29	=29	=29	=29
*	*^	*	*	*	*	*
8r	[4.a/N)	8rc	.	8%9r	.	.	.
!	!	!	!LO:DY:b=2	!	!	!	!
8CL 8FF/	.	8fL 8A\	pp	.	.	.	.
8CJ 8FF/	.	8fJ 8A\	.	.	.	.	.
2.C 2.FF;/	2.a;/]	2.f 2.A\	.	.	.	.	.
*	*v	*v	*	*	*	*	*
==	==	==	==	==	==	==
*-	*-	*-	*-	*-	*-	*-
!!!system-decoration: (p1){(p2)}
!!!ENC: Arkadiusz Malec
!!!END: 2022-09-09
!!!ENC: Kamil Watkowski
!!!END: 2022-09-22
!!!RDF**kern: > = above
!!!RDF**kern: < = below
!!!RDF**kern: N = link
!!!YEC: Copyright 2022 Narodowy Instytut Fryderyka Chopina (https://polishscores.org)
!!!YEM: License CC-BY-4.0 (https://creativecommons.org/licenses/by/4.0)
